aloe_vera/img/wrapper2.svg

<svg width="75" height="75" viewBox="0 0 75 75" fill="none" xmlns="http://www.w3.org/2000/svg">
<path d="M67.6758 25.1953C68.061 25.1953 68.439 25.0387 68.7112 24.766C68.9839 24.4937 69.1406 24.1158 69.1406 23.7305C69.1406 23.3453 68.9839 22.9673 68.7112 22.6948C68.439 22.4224 68.061 22.2657 67.6758 22.2657C67.2906 22.2657 66.9127 22.4223 66.6401 22.6948C66.3677 22.9675 66.2109 23.3453 66.2109 23.7305C66.2109 24.1158 66.3675 24.4937 66.6401 24.766C66.9127 25.0387 67.2906 25.1953 67.6758 25.1953Z" fill="white"/>
<path d="M28.7842 64.9903H28.7623C27.9534 64.9903 27.2976 65.6462 27.2976 66.4551C27.2976 67.264 27.9534 67.9199 28.7623 67.9199H28.7842C29.593 67.9199 30.249 67.264 30.249 66.4551C30.249 65.6462 29.593 64.9903 28.7842 64.9903Z" fill="white"/>
<path d="M75 58.8268V10.2539C75 7.83077 73.0286 5.85937 70.6055 5.85937H65.5878V4.98048C65.5878 2.23419 63.3536 0 60.6073 0C57.861 0 55.6268 2.23419 55.6268 4.98048V5.85937H42.4618V4.98048C42.4618 2.23419 40.2278 0 37.4813 0C34.7351 0 32.501 2.23419 32.501 4.98048V5.85937H19.3359V4.98048C19.3359 2.23419 17.1018 0 14.3555 0C11.6092 0 9.375 2.23419 9.375 4.98048V5.85937H4.39453C1.97138 5.85937 0 7.83077 0 10.2539V70.6055C0 73.0287 1.97138 75 4.39453 75H58.8268C59.2312 75 59.5972 74.836 59.8622 74.5712C59.8623 74.5712 59.8625 74.5712 59.8627 74.571L74.5709 59.8626C74.8359 59.5974 75 59.2313 75 58.8268ZM58.5565 4.98048C58.5565 3.84962 59.4765 2.92969 60.6073 2.92969C61.7381 2.92969 62.6581 3.84962 62.6581 4.98048V12.1582C62.6581 13.2891 61.7381 14.209 60.6073 14.209C59.4765 14.209 58.5565 13.2891 58.5565 12.1582V4.98048ZM35.4307 4.98048C35.4307 3.84962 36.3505 2.92969 37.4813 2.92969C38.6122 2.92969 39.5321 3.84962 39.5321 4.98048V12.1582C39.5321 13.2891 38.6122 14.209 37.4813 14.209C36.3505 14.209 35.4307 13.2891 35.4307 12.1582V4.98048ZM12.3047 4.98048C12.3047 3.84962 13.2246 2.92969 14.3555 2.92969C15.4863 2.92969 16.4062 3.84962 16.4062 4.98048V12.1582C16.4062 13.2891 15.4863 14.209 14.3555 14.209C13.2246 14.209 12.3047 13.2891 12.3047 12.1582V4.98048ZM2.92969 70.6055V67.9199H22.9248C23.7338 67.9199 24.3896 67.264 24.3896 66.4551C24.3896 65.6462 23.7338 64.9903 22.9248 64.9903H2.92969V25.1952H61.8164C62.6253 25.1952 63.2812 24.5394 63.2812 23.7305C63.2812 22.9216 62.6253 22.2656 61.8164 22.2656H2.92969V10.2539C2.92969 9.4462 3.58682 8.78906 4.39453 8.78906H9.375V12.1582C9.375 14.9045 11.6092 17.1387 14.3555 17.1387C17.1018 17.1387 19.3359 14.9045 19.3359 12.1582V8.78906H32.501V12.1582C32.501 14.9045 34.7351 17.1387 37.4813 17.1387C40.2278 17.1387 42.4618 14.9045 42.4618 12.1582V8.78906H55.6268V12.1582C55.6268 14.9045 57.861 17.1387 60.6073 17.1387C63.3536 17.1387 65.5878 14.9045 65.5878 12.1582V8.78906H70.6055C71.4131 8.78906 72.0703 9.4462 72.0703 10.2539V57.362H61.7565C59.3333 57.362 57.362 59.3333 57.362 61.7564V72.0703H4.39453C3.58682 72.0703 2.92969 71.4132 2.92969 70.6055ZM60.2917 69.9986V61.7563C60.2917 60.9486 60.9487 60.2916 61.7565 60.2916H69.9987L60.2917 69.9986Z" fill="white"/>
<path d="M51.2086 39.7975C51.2086 40.7825 50.8929 41.6201 50.2612 42.3103C49.6297 43.0005 48.7432 43.475 47.6018 43.7339V43.7985C48.9486 43.9568 49.9684 44.3449 50.6607 44.9632C51.3533 45.5744 51.6995 46.4011 51.6995 47.4436C51.6995 48.9606 51.1174 50.1433 49.9531 50.9916C48.7888 51.8327 47.1262 52.2532 44.965 52.2532C43.1539 52.2532 41.5484 51.9693 40.1481 51.4014V48.5652C40.795 48.8742 41.5065 49.1259 42.2826 49.3199C43.0588 49.5141 43.8275 49.6112 44.5883 49.6112C45.7526 49.6112 46.6125 49.4242 47.168 49.0505C47.7236 48.6765 48.0013 48.0762 48.0013 47.2494C48.0013 46.5089 47.6817 45.984 47.0424 45.675C46.4033 45.3658 45.3835 45.2112 43.9835 45.2112H42.7164V42.6554H44.0062C45.2999 42.6554 46.2434 42.4972 46.837 42.181C47.4382 41.8574 47.7387 41.3074 47.7387 40.531C47.7387 39.3374 46.9473 38.7408 45.3645 38.7408C44.8166 38.7408 44.2573 38.827 43.6865 38.9995C43.1236 39.1721 42.4956 39.4706 41.8033 39.8946L40.171 37.5977C41.6929 36.5624 43.5078 36.0448 45.6156 36.0448C47.343 36.0448 48.7051 36.3755 49.702 37.0368C50.7065 37.6983 51.2086 38.6186 51.2086 39.7975Z" fill="white"/>
<path d="M35.6832 48.7699H33.6743V52.0376H30.2271V48.7699H23.1045V46.4514L30.4212 36.2712H33.6743V46.1817H35.6832V48.7699ZM30.2271 46.1817V43.5074C30.2271 43.0617 30.2461 42.4146 30.2842 41.5663C30.3222 40.7178 30.3527 40.2255 30.3755 40.0888H30.2842C30.0026 40.6784 29.6639 41.2535 29.2683 41.8143L26.2092 46.1817H30.2271Z" fill="white"/>
</svg>

<svg width="75" height="75" fill="none" xmlns="http://www.w3.org/2000/svg"><path d="M67.676 25.195c.385 0 .763-.156 1.035-.429.273-.272.43-.65.43-1.035 0-.386-.157-.764-.43-1.036a1.475 1.475 0 00-1.035-.43c-.385 0-.763.157-1.036.43-.272.273-.43.65-.43 1.035 0 .386.158.764.43 1.036.273.273.65.43 1.036.43zM28.784 64.99h-.022a1.465 1.465 0 000 2.93h.022a1.465 1.465 0 000-2.93z" fill="#fff"/><path d="M75 58.827V10.254a4.4 4.4 0 00-4.394-4.395h-5.018V4.98A4.986 4.986 0 0060.608 0a4.986 4.986 0 00-4.981 4.98v.88H42.462v-.88A4.986 4.986 0 0037.482 0 4.986 4.986 0 0032.5 4.98v.88H19.336v-.88A4.986 4.986 0 0014.356 0a4.986 4.986 0 00-4.981 4.98v.88h-4.98A4.4 4.4 0 000 10.253v60.352A4.4 4.4 0 004.395 75h54.432c.404 0 .77-.164 1.035-.429l14.709-14.708A1.46 1.46 0 0075 58.827zM58.556 4.98c0-1.13.92-2.05 2.051-2.05 1.131 0 2.051.92 2.051 2.05v7.178c0 1.131-.92 2.051-2.05 2.051a2.053 2.053 0 01-2.051-2.05V4.98zm-23.125 0c0-1.13.92-2.05 2.05-2.05 1.131 0 2.051.92 2.051 2.05v7.178c0 1.131-.92 2.051-2.05 2.051a2.052 2.052 0 01-2.051-2.05V4.98zm-23.126 0c0-1.13.92-2.05 2.05-2.05 1.131 0 2.051.92 2.051 2.05v7.178c0 1.131-.92 2.051-2.05 2.051a2.053 2.053 0 01-2.051-2.05V4.98zM2.93 70.606V67.92h19.995a1.465 1.465 0 000-2.93H2.93V25.195h58.886a1.465 1.465 0 000-2.93H2.93v-12.01c0-.808.657-1.465 1.465-1.465h4.98v3.37a4.986 4.986 0 004.98 4.98 4.986 4.986 0 004.98-4.98V8.79h13.166v3.37a4.986 4.986 0 004.98 4.98 4.986 4.986 0 004.98-4.98V8.79h13.166v3.37a4.986 4.986 0 004.98 4.98 4.986 4.986 0 004.98-4.98V8.79h5.019c.807 0 1.464.657 1.464 1.465v47.108H61.757a4.4 4.4 0 00-4.395 4.394V72.07H4.395a1.466 1.466 0 01-1.465-1.464zm57.362-.607v-8.243c0-.807.657-1.464 1.465-1.464h8.242l-9.707 9.707z" fill="#fff"/><path d="M51.209 39.797c0 .986-.316 1.823-.948 2.513-.631.69-1.518 1.165-2.66 1.424v.064c1.348.159 2.367.547 3.06 1.165.692.611 1.038 1.438 1.038 2.48 0 1.518-.582 2.7-1.746 3.549-1.164.84-2.827 1.261-4.988 1.261-1.811 0-3.417-.284-4.817-.852v-2.836c.647.31 1.358.56 2.135.755a9.473 9.473 0 002.305.291c1.165 0 2.024-.187 2.58-.56.556-.375.833-.975.833-1.802 0-.74-.32-1.265-.959-1.574-.639-.31-1.659-.464-3.059-.464h-1.267v-2.556h1.29c1.294 0 2.237-.158 2.831-.474.601-.324.902-.874.902-1.65 0-1.194-.792-1.79-2.374-1.79-.548 0-1.108.086-1.678.258-.563.173-1.191.472-1.884.896l-1.632-2.297c1.522-1.036 3.337-1.553 5.445-1.553 1.727 0 3.09.33 4.086.992 1.005.661 1.507 1.582 1.507 2.76zM35.683 48.77h-2.009v3.268h-3.447V48.77h-7.122v-2.32l7.316-10.18h3.253v9.91h2.01v2.589zm-5.456-2.588v-2.675c0-.445.02-1.092.057-1.94.038-.85.069-1.342.091-1.478h-.09c-.282.59-.621 1.165-1.017 1.725l-3.059 4.368h4.018z" fill="#fff"/></svg>
